!!!COM: Anon.
!!!OCL: Francis James Child
!!!OPR: The English and Scottish Popular Ballads
!!!OVM: Vol. 1
!!!ONB: Ballad No. 45, Tune No. 1
!!!ONM: No. 45
!!!PDT: 1882
!!!YEM: Public domain.
**kern
*M6/4
{4f
=1
4g
4a
4g
4f
4e
4d
=2
4.c#
8B
4c#
2d}
!! Second phrase:
{8e
8f
=3
4g
4a
4g
4f
4e
4d
=4
4c#
4B
4c#
2d}
!! Third phrase:
{4A
=5
4A
4c
4c
4c
4c
4c
=6
4c
4c
4c
2cc}
!! Fourth phrase:
{4cc
=7
4a
4g
4f
4g
4e
4f
=8
4g
4f
4e
4c#}
!! Fifth phrase:
{4B
4c#
=9
2.d
2a
4f
=10
4g
2e
2d}
====
*-
!!!OCY: Britain; England
!!!PPP: Boston
!!!ODT: <1882
!!!AFR: folk song
!!!AST: monophony
!!!AMT: compound duple
!!!SCA: Child Collection
!!!AIN: vox
!!!EEV: 1.0
!!!RDT: 1987 June
!!!YER: 1994 August 10
!!!VTS: 652652838
